src/assets/icon-upload-image.svg

<svg width="40" height="40" viewBox="0 0 40 40" fill="none" xmlns="http://www.w3.org/2000/svg">
<path d="M33.75 6.25H6.25C5.58696 6.25 4.95107 6.51339 4.48223 6.98223C4.01339 7.45107 3.75 8.08696 3.75 8.75V31.25C3.75 31.913 4.01339 32.5489 4.48223 33.0178C4.95107 33.4866 5.58696 33.75 6.25 33.75H33.75C34.413 33.75 35.0489 33.4866 35.5178 33.0178C35.9866 32.5489 36.25 31.913 36.25 31.25V8.75C36.25 8.08696 35.9866 7.45107 35.5178 6.98223C35.0489 6.51339 34.413 6.25 33.75 6.25ZM33.75 8.75V24.8047L29.6766 20.7328C29.4444 20.5006 29.1688 20.3164 28.8654 20.1907C28.5621 20.0651 28.2369 20.0004 27.9086 20.0004C27.5802 20.0004 27.2551 20.0651 26.9518 20.1907C26.6484 20.3164 26.3728 20.5006 26.1406 20.7328L23.0156 23.8578L16.1406 16.9828C15.6718 16.5143 15.0362 16.2512 14.3734 16.2512C13.7107 16.2512 13.075 16.5143 12.6063 16.9828L6.25 23.3391V8.75H33.75ZM6.25 26.875L14.375 18.75L26.875 31.25H6.25V26.875ZM33.75 31.25H30.4109L24.7859 25.625L27.9109 22.5L33.75 28.3406V31.25ZM22.5 15.625C22.5 15.2542 22.61 14.8916 22.816 14.5833C23.022 14.275 23.3149 14.0346 23.6575 13.8927C24.0001 13.7508 24.3771 13.7137 24.7408 13.786C25.1045 13.8584 25.4386 14.037 25.7008 14.2992C25.963 14.5614 26.1416 14.8955 26.214 15.2592C26.2863 15.6229 26.2492 15.9999 26.1073 16.3425C25.9654 16.6851 25.725 16.978 25.4167 17.184C25.1084 17.39 24.7458 17.5 24.375 17.5C23.8777 17.5 23.4008 17.3025 23.0492 16.9508C22.6975 16.5992 22.5 16.1223 22.5 15.625Z" fill="black"/>
</svg>

<svg xmlns="http://www.w3.org/2000/svg" width="40" height="40" fill="none" viewBox="0 0 40 40"><path fill="#633CFF" d="M33.75 6.25H6.25a2.5 2.5 0 0 0-2.5 2.5v22.5a2.5 2.5 0 0 0 2.5 2.5h27.5a2.5 2.5 0 0 0 2.5-2.5V8.75a2.5 2.5 0 0 0-2.5-2.5Zm0 2.5v16.055l-4.073-4.072a2.5 2.5 0 0 0-3.536 0l-3.125 3.125-6.875-6.875a2.5 2.5 0 0 0-3.535 0L6.25 23.339V8.75h27.5ZM6.25 26.875l8.125-8.125 12.5 12.5H6.25v-4.375Zm27.5 4.375h-3.34l-5.624-5.625L27.91 22.5l5.839 5.84v2.91ZM22.5 15.625a1.875 1.875 0 1 1 3.75 0 1.875 1.875 0 0 1-3.75 0Z"/></svg>
